X: 161817
T: Piper's Favorite
T: Rogha an Phiobaire
S: B.Breathnach:"Ceol Rince na hEireann" IV/206 
Z: B.Black
L: 1/8
M: 4/4
R: reel
K: D
B|A3f fedB|AdBd e3f|A3f edBd|fgef defd|
A3f fedB|AdBd e3f|A3f edBd|(3fga ef d3 ||
f|fedf edBd|fedf a3g|fedf edBd|fgef dcdf|
fedf edBd|fedf a3f|gage fgfe|dBAB d3 ||
